flaticon/army-badges/chevron-14.svg

<svg xmlns="http://www.w3.org/2000/svg" width="32" height="32" viewBox="0 0 24 24">
    <path d="M 12 18.390625 C 10.878906 18.390625 9.996094 19.273438 9.996094 20.394531 C 9.996094 21.515625 10.878906 22.398438 12 22.398438 C 13.121094 22.398438 14.003906 21.515625 14.003906 20.394531 C 14.003906 19.273438 13.121094 18.390625 12 18.390625 Z M 12 21.597656 C 11.320312 21.597656 10.796875 21.074219 10.796875 20.394531 C 10.796875 19.714844 11.320312 19.191406 12 19.191406 C 12.679688 19.191406 13.203125 19.714844 13.203125 20.394531 C 13.203125 21.074219 12.679688 21.597656 12 21.597656 Z M 12 21.597656"/>
    <path d="M 18.410156 0 L 5.589844 0 C 5.347656 0 5.1875 0.160156 5.1875 0.402344 L 5.1875 19.191406 C 5.1875 19.59375 5.390625 19.992188 5.75 20.195312 L 7.753906 21.597656 C 7.78125 21.609375 7.808594 21.625 7.835938 21.636719 L 10.679688 23.597656 C 11.078125 23.878906 11.519531 24 12 24 C 12.480469 24 12.921875 23.878906 13.320312 23.597656 L 16.164062 21.636719 C 16.191406 21.625 16.21875 21.609375 16.246094 21.597656 L 18.25 20.195312 C 18.609375 19.992188 18.8125 19.59375 18.8125 19.191406 L 18.8125 0.402344 C 18.8125 0.160156 18.652344 0 18.410156 0 Z M 18.011719 0.800781 L 18.011719 19.152344 C 18.011719 19.3125 17.929688 19.433594 17.808594 19.511719 L 16.40625 20.480469 L 16.40625 0.800781 Z M 5.988281 0.800781 L 7.59375 0.800781 L 7.59375 20.480469 L 6.191406 19.511719 C 6.070312 19.472656 5.988281 19.3125 5.988281 19.191406 Z M 12.882812 22.917969 C 12.359375 23.277344 11.640625 23.277344 11.117188 22.917969 L 8.394531 21.035156 L 8.394531 0.800781 L 15.605469 0.800781 L 15.605469 21.035156 Z M 12.882812 22.917969"/>
    <path d="M 14.285156 9.296875 L 12.28125 7.292969 C 12.121094 7.132812 11.878906 7.132812 11.71875 7.292969 L 9.714844 9.296875 C 9.554688 9.457031 9.554688 9.695312 9.714844 9.855469 L 11.71875 11.859375 C 11.800781 11.941406 11.878906 11.980469 12 11.980469 C 12.121094 11.980469 12.199219 11.941406 12.28125 11.859375 L 14.285156 9.855469 C 14.445312 9.695312 14.445312 9.457031 14.285156 9.296875 Z M 12 11.019531 L 10.558594 9.574219 L 12 8.132812 L 13.441406 9.574219 Z M 12 11.019531"/>
</svg>

<svg xmlns="http://www.w3.org/2000/svg" width="32" height="32" viewBox="0 0 24 24">
    <path d="M12 18.39a1.986 1.986 0 0 0-2.004 2.005c0 1.12.883 2.003 2.004 2.003a1.986 1.986 0 0 0 2.004-2.003A1.986 1.986 0 0 0 12 18.39zm0 3.208c-.68 0-1.203-.524-1.203-1.203 0-.68.523-1.204 1.203-1.204s1.203.524 1.203 1.204c0 .68-.523 1.203-1.203 1.203zm0 0"/>
    <path d="M18.41 0H5.59c-.242 0-.402.16-.402.402v18.79c0 .402.203.8.562 1.003l2.004 1.403c.027.011.055.027.082.039l2.844 1.96c.398.282.84.403 1.32.403.48 0 .922-.121 1.32-.402l2.844-1.961c.027-.012.055-.028.082-.04l2.004-1.402c.36-.203.563-.601.563-1.004V.402c0-.242-.16-.402-.403-.402zm-.398.8v18.352c0 .16-.082.282-.203.36l-1.403.968V.8zM5.988.8h1.606v19.68l-1.403-.968c-.12-.04-.203-.2-.203-.32zm6.895 22.118a1.58 1.58 0 0 1-1.766 0l-2.722-1.883V.801h7.21v20.234zm0 0"/>
    <path d="M14.285 9.297l-2.004-2.004a.39.39 0 0 0-.562 0L9.715 9.297a.385.385 0 0 0 0 .558l2.004 2.004c.082.082.16.121.281.121.121 0 .2-.039.281-.12l2.004-2.005a.385.385 0 0 0 0-.558zM12 11.02l-1.441-1.446L12 8.133l1.441 1.441zm0 0"/>
</svg>
